!!!COM: Scriabin, Alexander
!!!OTL@@FR: Poème
!!!OTL@@EN: Poem
!!!OPR@@FR: 2 Poèmes
!!!OPR@@EN: 2 Poems
!!!OPS: 69
!!!ONM: 1
!!!ODT: 1913
!!!AGN: Poem
**kern	**kern	**dynam
*staff2	*staff1	*staff1/2
*Ipiano	*Ipiano	*
*clefF4	*clefG2	*
*k[]	*k[]	*
*X:	*X:	*
*M3/4	*M3/4	*
=1	=1	=1
*^	*^	*
4C	8rc	2.e	2dd	.
.	8F#XL	.	.	.
4rEE	8B-X	.	.	.
.	8AJ	.	.	.
4rEE	[4d	.	12aL	.
.	.	.	12.b-X	.
.	.	.	24ff#XJk	.
=2	=2	=2	=2	=2
2.C 2.B-X 2.e	8d]	2.b-X	[2aa	.
.	4d	.	.	.
.	8d-X	.	.	.
.	8dnL	.	8.aaL]	.
.	8d-XJ	.	.	.
.	.	.	16ff#XJk	.
=3	=3	=3	=3	=3
8eL	[2.c	[2.b-X	[2.bb-X	.
8G-X	.	.	.	.
8AA-X	.	.	.	.
8G-	.	.	.	.
8e	.	.	.	.
[8g-XJ	.	.	.	.
=4	=4	=4	=4	=4
2.g-] 2.cc	4.c]	2.b-]	4.bb-]	.
.	4f-X	.	4dd	.
.	8e-X	.	8ee-X	.
=5	=5	=5	=5	=5
4En	8rc	2.g#X	2ff#X	.
.	8A#XL	.	.	.
4rEE	8d	.	.	.
.	8c#XJ	.	.	.
4rEE	[4f#X	.	12cc#XL	.
.	.	.	12.dd	.
.	.	.	24aa#XJk	.
=6	=6	=6	=6	=6
2.E 2.d 2.g#X	8f#]	2.dd	[2ccc#X	.
.	4f#X	.	.	.
.	8fn	.	.	.
.	8f#XL	.	8.ccc#L]	.
.	8fnJ	.	.	.
.	.	.	16aa#XJk	.
=7	=7	=7	=7	=7
8dL	2.e	[2.dd	[2.ddd	.
8G#X	.	.	.	.
8AA#X	.	.	.	.
8G#	.	.	.	.
8d	.	.	.	.
*clefG2	*	*	*	*
[8g#XJ	.	.	.	.
=8	=8	=8	=8	=8
2.g#] 2.cc	2.ryy	2.dd]	4.ddd]	.
.	.	.	4ee	.
.	.	.	8ee#X	.
*	*	*v	*v	*
=9	=9	=9	=9
12rc	2ff#X	12r	.
12ddL	.	[6gg#X	.
12g#XJ	.	.	.
12dL	.	6gg#]	.
12EnJ	.	.	.
12rc	.	12dd	.
.	8qdd/	.	.
4rc	12ff#L	6cc#X	.
.	12ffn	.	.
.	12eeJ	12g#X	.
=10	=10	=10	=10
12rc	2dd#X	2.a	.
12bL	.	.	.
12e#XJ	.	.	.
*clefF4	*	*	*
12BL	.	.	.
12C#XJ	.	.	.
12rEE	.	.	.
*clefG2	*	*	*
4rc	6dd#	.	.
.	12ddn	.	.
=11	=11	=11	=11
12rc	2ff#X	12r	.
12ddL	.	[6gg#X	.
12g#XJ	.	.	.
12dL	.	6gg#]	.
12EnJ	.	.	.
12rc	.	12dd	.
.	8qdd/	.	.
4rc	12ff#L	6cc#X	.
.	12ffn	.	.
.	12eeJ	12g#X	.
=12	=12	=12	=12
12rc	2dd#X	2.a	.
12bL	.	.	.
12e#XJ	.	.	.
*clefF4	*	*	*
12BL	.	.	.
12C#XJ	.	.	.
12rEE	.	.	.
4rEE	4rc	.	.
*clefG2	*	*	*
=13	=13	=13	=13
12dd#L	4dd#X	4.a#X	.
12g#X	.	.	.
12enJ	.	.	.
*clefF4	*	*	*
12A#XL	4rc	.	.
12BB#XJ	.	.	.
.	.	8g#X	.
12rEE	.	.	.
4rEE	4rc	8eL	.
.	.	8d#XJ	.
*v	*v	*	*
=14	=14	=14
2.r	2.ee	.
=15	=15	=15
24eLL	24r	.
24A#XJ	24a#XLL	.
12BB#XJ	24g#X	.
.	24eJ	.
12r	[12d#XJ	.
24A#LL	12d#L]	.
24EJ	.	.
.	12qg#/	.
12FF#XJ	12ee	.
12r	12dnJ	.
24eLL	24r	.
24A#J	24a#LL	.
12BB#J	24g#	.
.	24eJ	.
12r	[12d#XJ	.
=16	=16	=16
24A#XLL	12d#L]	.
24EJ	.	.
.	8qg#	.
12FF#XJ	12ee	.
12r	[12dnJ	.
8FF# 8E 8B-X	24d]	.
.	24eeLL	.
.	24dd	.
8r	24b-J	.
.	[12anJ	.
4r	120aLL]	.
.	120ff#	.
.	120ee	.
.	120dd	.
.	120b-	.
.	120aanJJ	.
.	120ff#LL	.
.	120ee	.
.	120dd	.
.	120bb-	.
.	120aa	.
.	120ff#JJ	.
.	120eeLL	.
.	120ddd	.
.	120bb-	.
.	120aa	.
.	120ff#	.
.	120eeeJJ	.
.	120dddLL	.
.	120bb-	.
.	120aa	.
.	120fff#	.
.	120eee	.
.	120dddJJ	.
.	120bb-LL	.
.	120aaan	.
.	120fff#	.
.	120eee	.
.	120ddd	.
.	240bbb-JJ	.
.	240r	.
=17	=17	=17
*^	*^	*
4C	8rc	2.e	2dd	.
.	8F#XL	.	.	.
4rEE	8B-X	.	.	.
.	8AJ	.	.	.
4rEE	[4d	.	12aL	.
.	.	.	12.b-X	.
.	.	.	24ff#XJk	.
=18	=18	=18	=18	=18
2.C 2.B-X 2.e	8d]	2.b-X	[2aa	.
.	4d	.	.	.
.	8d-X	.	.	.
.	8dnL	.	8.aaL]	.
.	8d-XJ	.	.	.
.	.	.	16ff#XJk	.
=19	=19	=19	=19	=19
8eL	[2.c	[2.b-X	[2.bb-X	.
8G-X	.	.	.	.
8AA-X	.	.	.	.
8G-	.	.	.	.
8e	.	.	.	.
[8g-XJ	.	.	.	.
=20	=20	=20	=20	=20
2.g-] 2.cc	4.c]	2.b-]	4.bb-]	.
.	4f-X	.	4dd	.
.	8e-X	.	8ee-X	.
=21	=21	=21	=21	=21
4En	8rc	2.g#X	2ff#X	.
.	8A#XL	.	.	.
4rEE	8d	.	.	.
.	8c#XJ	.	.	.
4rEE	[4f#X	.	12cc#XL	.
.	.	.	12.dd	.
.	.	.	24aa#XJk	.
=22	=22	=22	=22	=22
2.E 2.d 2.g#X	8f#]	2.dd	[2ccc#X	.
.	4f#X	.	.	.
.	8fn	.	.	.
.	12f#XL	.	8.ccc#L]	.
.	12fn	.	.	.
.	12f#XJ	.	.	.
.	.	.	16aa#XJk	.
*v	*v	*	*	*
*clefG2	*	*	*
=23	=23	=23	=23
*^	*	*	*
*	*^	*	*	*
12a-X/L	[2.gn	2.ryy	[2.dd	[2.ddd	.
12d/	.	.	.	.	.
*clefF4	*	*	*	*	*
12EJ	.	.	.	.	.
8BB-X/L	.	.	.	.	.
8E/	.	.	.	.	.
*clefG2	*	*	*	*	*
8d/	.	.	.	.	.
[8a-/J	.	.	.	.	.
=24	=24	=24	=24	=24	=24
2.a-/]	2g]	[2cc	2.dd]	4.ddd]	.
.	.	.	.	4bb-X	.
.	4g-X	8ccL]	.	.	.
.	.	8cc-XJ	.	8ccc-X	.
*	*	*	*v	*v	*
*	*v	*v	*	*
=25	=25	=25	=25
12rc	2ccn	12r	.
12a-XL	.	[6ddd	.
12dJ	.	.	.
*clefF4	*	*	*
12A-XL	.	6ddd]	.
12BB-XJ	.	.	.
12rEE	.	12aa-X	.
*clefG2	*	*	*
.	8qa-/	.	.
4rc	12ccL	6gg	.
.	12cc-X	.	.
.	12b-XJ	12dd	.
=26	=26	=26	=26
12rc	2an	2.ee-X	.
12fL	.	.	.
*clefF4	*	*	*
12BnJ	.	.	.
12FL	.	.	.
12GGJ	.	.	.
12rEE	.	.	.
*clefG2	*	*	*
4rc	6a	.	.
.	12a-X	.	.
=27	=27	=27	=27
12rc	2cc	12r	.
12a-XL	.	[6ddd	.
12dJ	.	.	.
*clefF4	*	*	*
12A-XL	.	6ddd]	.
12BB-XJ	.	.	.
12rEE	.	12aa-X	.
*clefG2	*	*	*
.	16qqd/LL	.	.
.	16qqa-/JJ	.	.
4rc	12ccL	6gg	.
.	12cc-X	.	.
.	12b-XJ	12dd	.
=28	=28	=28	=28
12rc	2an	2.ee-X	.
12fL	.	.	.
*clefF4	*	*	*
12BnJ	.	.	.
12FL	.	.	.
12GGJ	.	.	.
12rEE	.	.	.
*clefG2	*	*	*
4rc	6a	.	.
.	12a	.	.
=29	=29	=29	=29
12rc	2a	4.een	.
12dL	.	.	.
*clefF4	*	*	*
12B-XJ	.	.	.
12EL	.	.	.
12FF#XJ	.	.	.
.	.	8dd	.
12rEE	.	.	.
4rEE	4rc	8.b-XL	.
.	.	16aJk	.
*v	*v	*	*
=30	=30	=30
2.r	2.bb-X	.
=31	=31	=31
24eLL	24r	.
24B-XJ	24eeLL	.
12CJ	24dd	.
.	24b-XJ	.
12r	[12aJ	.
24B-LL	12aL]	.
24EJ	.	.
.	12qdd/	.
12FF#XJ	12bb-X	.
12r	12a-XJ	.
24eLL	24r	.
24B-J	24eeLL	.
12CJ	24dd	.
.	24b-J	.
12r	[12anJ	.
=32	=32	=32
*	*^	*
24B-XLL	4r	12aL]	.
24EJ	.	.	.
.	.	12qdd/	.
12FF#XJ	.	12bb-X	.
12r	.	12a-XJ	.
8EEE-X 8EE-X	12G 12d-	24g	.
.	.	24ggLL	.
.	6r	24ffn	.
8r	.	24dd-J	.
.	.	[12ccJ	.
4r	4r	120ccLL]	.
.	.	120aan	.
.	.	120gg	.
.	.	120ff	.
.	.	120dd-	.
.	.	120cccJJ	.
.	.	120aaLL	.
.	.	120gg	.
.	.	120ff	.
.	.	120ddd-	.
.	.	120ccc	.
.	.	120aaJJ	.
.	.	120ggLL	.
.	.	120fff	.
.	.	120ddd-	.
.	.	120ccc	.
.	.	120aa	.
.	.	120gggJJ	.
.	.	120fffLL	.
.	.	120ddd-	.
.	.	120ccc	.
.	.	120aaa	.
.	.	120ggg	.
.	.	120fffJJ	.
.	.	120ddd-LL	.
.	.	120cccc	.
.	.	120aaa	.
.	.	120ggg	.
.	.	120fff	.
.	.	240dddd-JJ	.
.	.	240r	.
=33	=33	=33	=33
[2.E-X [2.d-X [2.g-X	4rc	8raa	.
.	.	8a	.
.	[4b-	8b-XL	.
.	.	8gg-XJ	.
.	4b-_	[4aa	.
=34	=34	=34	=34
2.E-] 2.d-] 2.g-]	2.b-]	2aa]	.
.	.	4gg-X	.
*	*v	*v	*
=35	=35	=35
[32qqqB-LLL	.	.
32qqqB-_ [32qqqdn	.	.
32qqqB-_ 32qqqd_ [32qqqen	.	.
32qqqB-_JJ 32qqqd_ 32qqqe_ [32qqqgn	.	.
16qqB-_J 16qqd_ 16qqe_ 16qqg_	[32qqqb-LLL	.
.	32qqqb-_ [32qqqeeJJJ	.
[2.CC [2.C 2.B-_ 2.d_ 2.e_ 2.g_	2.b-_ 2.ee_ [2.bb-	.
=36	=36	=36
2.CC] 2.C] 2.B-] 2. d] 2.e] 2.g]	2.b-] 2.ee] 2.bb-]	.
==	==	==
*-	*-	*-
!!!system-decoration: {(*)}
!!!ENC: Bryan Jacob Bell
!!!END: November 2021 to April 2022
!!!PED: Günter Philipp
!!!PTL: Ausgewählte Klavierwerke (Edition Peters)
